img/part6/6/1_無加盟金_icon.svg

<svg width="51" height="40" viewBox="0 0 51 40" fill="none" xmlns="http://www.w3.org/2000/svg"><path d="M27.4912 17.5C26.4912 17.25 25.4912 16.75 24.7412 16C23.9912 15.75 23.7412 15 23.7412 14.5C23.7412 14 23.9912 13.25 24.4912 13C25.2412 12.5 25.9912 12 26.7412 12.25C28.2412 12.25 29.4912 13 30.2412 14L32.4912 11C31.7412 10.25 30.9912 9.75 30.2412 9.25C29.4912 8.75 28.4912 8.5 27.4912 8.5V5H24.4912V8.5C23.2412 8.75 21.9912 9.5 20.9912 10.5C19.9912 11.75 19.2412 13.25 19.4912 14.75C19.4912 16.25 19.9912 17.75 20.9912 18.75C22.2412 20 23.9912 20.75 25.4912 21.5C26.2412 21.75 27.2412 22.25 27.9912 22.75C28.4912 23.25 28.7412 24 28.7412 24.75C28.7412 25.5 28.4912 26.25 27.9912 27C27.2412 27.75 26.2412 28 25.4912 28C24.4912 28 23.2412 27.75 22.4912 27C21.7412 26.5 20.9912 25.75 20.4912 25L17.9912 27.75C18.7412 28.75 19.4912 29.5 20.4912 30.25C21.7412 31 23.2412 31.75 24.7412 31.75V35H27.4912V31.25C28.9912 31 30.2412 30.25 31.2412 29.25C32.4912 28 33.2412 26 33.2412 24.25C33.2412 22.75 32.7412 21 31.4912 20C30.2412 18.75 28.9912 18 27.4912 17.5ZM25.9912 0C14.9912 0 5.99121 9 5.99121 20C5.99121 31 14.9912 40 25.9912 40C36.9912 40 45.9912 31 45.9912 20C45.9912 9 36.9912 0 25.9912 0ZM25.9912 37.25C16.4912 37.25 8.74121 29.5 8.74121 20C8.74121 10.5 16.4912 2.75 25.9912 2.75C35.4912 2.75 43.2412 10.5 43.2412 20C43.2412 29.5 35.4912 37.25 25.9912 37.25Z" fill="#B04B19"></path><line x1="45.0228" y1="1.08893" x2="7.02283" y2="37.0889" stroke="#C2724A" stroke-width="3"></line></svg>

<svg width="51" height="40" fill="none" xmlns="http://www.w3.org/2000/svg"><path d="M27.491 17.5c-1-.25-2-.75-2.75-1.5-.75-.25-1-1-1-1.5s.25-1.25.75-1.5c.75-.5 1.5-1 2.25-.75 1.5 0 2.75.75 3.5 1.75l2.25-3c-.75-.75-1.5-1.25-2.25-1.75s-1.75-.75-2.75-.75V5h-3v3.5c-1.25.25-2.5 1-3.5 2-1 1.25-1.75 2.75-1.5 4.25 0 1.5.5 3 1.5 4 1.25 1.25 3 2 4.5 2.75.75.25 1.75.75 2.5 1.25.5.5.75 1.25.75 2s-.25 1.5-.75 2.25c-.75.75-1.75 1-2.5 1-1 0-2.25-.25-3-1-.75-.5-1.5-1.25-2-2l-2.5 2.75c.75 1 1.5 1.75 2.5 2.5 1.25.75 2.75 1.5 4.25 1.5V35h2.75v-3.75c1.5-.25 2.75-1 3.75-2 1.25-1.25 2-3.25 2-5 0-1.5-.5-3.25-1.75-4.25-1.25-1.25-2.5-2-4-2.5ZM25.991 0c-11 0-20 9-20 20s9 20 20 20 20-9 20-20-9-20-20-20Zm0 37.25c-9.5 0-17.25-7.75-17.25-17.25s7.75-17.25 17.25-17.25S43.241 10.5 43.241 20s-7.75 17.25-17.25 17.25Z" fill="#B04B19"/><path stroke="#C2724A" stroke-width="3" d="m45.023 1.089-38 36"/></svg>
